icons/star-17.svg

<svg width="16" height="17" viewBox="0 0 16 17" fill="none" xmlns="http://www.w3.org/2000/svg">
<path fill-rule="evenodd" clip-rule="evenodd" d="M8.00077 2.43091C8.11418 2.43084 8.22533 2.46251 8.32166 2.52234C8.418 2.58217 8.49565 2.66777 8.54585 2.76945L10.0701 5.8593L13.4799 6.35497C13.592 6.37126 13.6974 6.41859 13.784 6.49162C13.8707 6.56464 13.9352 6.66045 13.9702 6.76821C14.0053 6.87598 14.0095 6.9914 13.9823 7.10143C13.9553 7.21146 13.898 7.31171 13.8168 7.39086L11.3498 9.79632L11.9321 13.1915C11.9513 13.3032 11.9389 13.418 11.8962 13.5231C11.8536 13.6281 11.7824 13.7191 11.6907 13.7857C11.599 13.8524 11.4905 13.8921 11.3774 13.9003C11.2643 13.9084 11.1513 13.8849 11.0509 13.8321L8.00077 12.2285L4.95062 13.8321C4.85034 13.8848 4.73734 13.9084 4.62437 13.9002C4.51141 13.892 4.40298 13.8524 4.31133 13.7859C4.21969 13.7193 4.14846 13.6285 4.10572 13.5236C4.06298 13.4187 4.0504 13.304 4.06942 13.1923L4.65257 9.79551L2.18393 7.39086C2.10259 7.31174 2.04503 7.21143 2.01778 7.10128C1.99053 6.99114 1.99467 6.87556 2.02974 6.76765C2.06482 6.65973 2.12941 6.5638 2.21621 6.49072C2.30301 6.41764 2.40855 6.37033 2.52086 6.35416L5.93062 5.8593L7.4557 2.76945C7.5059 2.66777 7.58356 2.58217 7.67989 2.52234C7.77622 2.46251 7.88738 2.43084 8.00077 2.43091ZM8.00077 4.41116L6.87903 6.68299C6.83548 6.77119 6.77115 6.84749 6.69158 6.90533C6.612 6.96318 6.51958 7.00083 6.42224 7.01505L3.91392 7.37952L5.72814 9.14838C5.79872 9.21711 5.85154 9.30198 5.88202 9.39567C5.91249 9.48937 5.91973 9.58906 5.90308 9.68617L5.47544 12.184L7.71811 11.0047C7.80528 10.9589 7.9023 10.935 8.00077 10.935C8.09926 10.935 8.19626 10.9589 8.28344 11.0047L10.5269 12.184L10.0976 9.68617C10.081 9.58906 10.0883 9.48937 10.1187 9.39567C10.1492 9.30198 10.202 9.21711 10.2726 9.14838L12.0868 7.38033L9.57931 7.01586C9.48197 7.00164 9.38954 6.96399 9.30998 6.90614C9.2304 6.8483 9.16608 6.772 9.12251 6.6838L8.00077 4.41035V4.41116Z" fill="#272431"/>
</svg>

<svg xmlns="http://www.w3.org/2000/svg" width="16" height="17" viewBox="0 0 16 17"><path fill-rule="evenodd" d="M8 2.43a.607.607 0 01.546.34l1.524 3.09 3.41.495a.607.607 0 01.337 1.036L11.35 9.796l.582 3.396a.607.607 0 01-.881.64L8 12.228l-3.05 1.604a.607.607 0 01-.882-.64l.584-3.396-2.47-2.405a.608.608 0 01.338-1.037l3.41-.495 1.525-3.09A.607.607 0 018 2.431zm0 1.981L6.88 6.683a.607.607 0 01-.457.332l-2.508.365 1.814 1.768a.608.608 0 01.175.538l-.428 2.498 2.243-1.18a.608.608 0 01.565 0l2.244 1.18-.43-2.498a.609.609 0 01.176-.538l1.814-1.768-2.508-.364a.607.607 0 01-.456-.332L8 4.41v.001z"/></svg>
